!!!COM: Joplin, Scott
!!!CDT: 1868/11/24/-1917/04/01/
!!!OTL: Eugenia
!!!ONB: Rag
!!!ODT: 1901///
**kern	**kern
*staff2	*staff1
*Ipiano	*Ipiano
*>[I,A,A1,A,A2,B,B1,B,B2,C,D,D1,D,D2,E,E1,E,E2]	*>[I,A,A1,A,A2,B,B1,B,B2,C,D,D1,D,D2,E,E1,E,E2]
*>I	*>I
*clefF4	*clefG2
*k[b-e-a-d-]	*k[b-e-a-d-]
*M2/4	*M2/4
*MM90	*MM90
=1-	=1-
8E-L	8e-L
[8cJ	[8ccJ
16cLL]	16ccLL]
16B-	16b-
16A-	16a-
16GJJ	16gJJ
=2	=2
16FLK	16fLK
8E-	8e-
16D-Jk	16d-Jk
8CL	8cL
16BB-L	16B-L
16AA-JJ	16A-JJ
=3	=3
4EE-	16GLL
.	16A-
.	16B-
.	16cJJ
16E-LL	16d-LL
16D-	16e-
16C	16f
16BB-JJ	16gJJ
=4	=4
8AA-L	8a-
8cJ A- E-	8r
8EE-L	4r
8cJ A- E-	.
=5!|:	=5!|:
*>A	*>A
8AA-L	8cc a-
8cJ A- E-	4cc a-
8EE-L	.
8cJ A- E-	8ee- cc
=6	=6
8AA-L	16ffLK bn
.	8ee- cc
8cJ A- E-	.
.	16ffJk b
8EE-L	16ee-LL cc
.	16ffJ b
8cJ A- E-	8ee-J cc
=7	=7
8DD-L	16bb-LK een
.	8aa- ff
8d-J A- F	.
.	16bb-Jk ee
8DD-L	16aa-LL ff
.	16bb- ee
8d-J A- F	16aa- ff
.	[16ee-JJ [cc
=8	=8
*	*^
8AA-L	2ee-] cc]	8r
8cJ A- E-	.	16e-LL
.	.	16fJJ
8EE-L	.	16gLL
.	.	16a-
8cJ A- E-	.	16b-
.	.	16bnJJ
*	*v	*v
=9	=9
8AA-L	8cc a-
8cJ A- E-	4cc a-
8EE-L	.
8cJ A- E-	8ee- cc
=10	=10
8AA-L	16ffLK bn
.	8ee- cc
8cJ A- E-	.
.	16ffJk b
8AAnL	16ee-LL cc
.	16ee-J cc
8e-J An F#	8ee-J cc
=11	=11
*	*^
8BB-L	16ee-LK	16r
.	8b-	8.g
8e-J B- G	.	.
.	16ee-Jk	.
8BB-L	16ddnLL	8a-L
.	16ee-J	.
8dnJ B-	8ffJ	8a-J
*	*v	*v
=12	=12
8e-L E-	[4ee- [g
8d-J D-	.
8cL C	16ee-]LL g]
.	16e-
8B-J BB-	16g
.	16dd-JJ
=13	=13
8A-L AA-	8cc a-
8cJ A- E-	4cc a-
8EE-L	.
8cJ A- E-	8ee- cc
=14	=14
8AA-L	16ffLK bn
.	8ee- cc
8cJ A- E-	.
.	16ffJk b
8EE-L	16ee-LL cc
.	16ffJ b
8cJ A- E-	8ee-J cc
=15	=15
8DD-L	16bb-LK een
.	8aa- ff
8d-J A- F	.
.	16bb-Jk ee
8d-L D-	16aa-LL ff
.	16aa- ff
8d-J D-	16bb- gg ff
.	[16cccJJ [gg ee
=16	=16
*	*^
8cL C	4ccc_ gg] een	16r
.	.	16ccLL
8GJ GG	.	16een
.	.	16ggJJ
8C CC	8cccL	8ccc]
8r	16ggL	8r
.	16aa-JJ	.
*	*v	*v
=17	=17
8D-L DD-	16bb-LK een
.	8aa- ff
8d-J A- F	.
.	16bb-Jk ee
8D-L DD-	16aa-LL ff
.	16bb- ee
8d-J A- F	16aa- ff
.	[16ee-JJ [cc
=18	=18
8A-L AA-	16ee-]LL cc]
.	16ff dd-
8cJ A- E-	16ee- cc
.	16dd-JJ b-
8A-L AA-	16ccLK a-
.	8ee- cc
8cJ A- E-	.
.	16ee-Jk cc
=19	=19
8E-L EE-	16ee-LK an
.	8dd- b-
8d-J G E-	.
.	16ee-Jk a
8E-L EE-	16dd-LL b-
.	16ccJ g d-
8E-J EE-	8b-J g d-
=20	=20
*>A1	*>A1
*^	*
[4E-	8AA-L	[4a- [c
.	8EE-J	.
8E-]	8FFL	8a-] c]
8r	8GGJ	8r
*v	*v	*
=21:|!	=21:|!
*>A2	*>A2
8A-L AA-	4a- c
8E-J EE-	.
8AA- AAA-	8aa-L ee- cc a-
8r	16e-L
.	16enJJ
=22!|:	=22!|:
*>B	*>B
8E-L EE-	16fLL
.	16f#
8d-J B- E-	16g
.	[16b-JJ [g
8GL GG	16b-]LL g]
.	16ee-
8d-J G E-	16dd-
.	16b-JJ
=23	=23
8B-L BB-	16fLL
.	16f#
8d-J B- G E-	16g
.	[16ccJJ [g
8B-L BB-	16cc]LL g]
.	16b-
8BnJ BBn	16fn
.	16gJJ
=24	=24
8cL C	16a-LL
.	16e-
8cJ A- E-	16f
.	16gJJ
8E-L EE-	16a-LL
.	16an
8cJ A- E-	16b-
.	16bnJJ
=25	=25
8A-L AA-	16ccLL
.	16bn
8cJ A- E-	16cc
.	[16ffJJ [cc
8E-L EE-	16ff]LL cc]
.	16ee-
8cJ A- E-	16b-
.	16ccJJ
=26	=26
8B-L BB-	16dd-LK
.	8bb-
8d-J G E-	.
.	16ccJk
8E-L EE-	16dd-LK
.	8bb-
8d-J G E-	.
.	16ccJk
=27	=27
8B-L BB-	16dd-LK
.	8bb-
8d-J G E-	.
.	16aa-Jk
8E-L EE-	16ggLL
.	16ff
8GJ GG	16ee-
.	16dd-JJ
=28	=28
8A-L AA-	16ccLK
.	8aa-
8cJ A- E-	.
.	16bnJk
8E-L EE-	16ccLK
.	8aa-
8cJ A- E-	.
.	16bJk
=29	=29
8A-L AA-	16ccLK
.	8aa-
8cJ A- E-	.
.	16ffJk
8E-L EE-	16ee-LL
.	16cc
8cJ A- E-	16b-
.	16a-JJ
=30	=30
8FL FF	16gLL
.	16g#
8e-J An F	16an
.	[16ffJJ [a
8AL AAn	16ff]LL a]
.	16ee-
8e-J A F	16cc
.	16aJJ
=31	=31
8cL C	16gLL
.	16g#
8e-J An F	16an
.	[16ffJJ [a
8FL FF	16ff]LL a]
.	16ee- cc
8e-J A F	16ff a
.	16ee-JJ cc
=32	=32
8BB-L	16dd-LL b-
.	16cc an
8d-J B- F	16dd- b-
.	[16fJJ
8D-L	16fLL]
.	16a
8d-J B- F	16b-
.	16dd-JJ
=33	=33
8BB-L	16ffLL
.	16cc
8B-J F	16dd-
.	[16b-JJ
4B- F D-	16b-LL]
.	16f
.	16d-
.	16B-JJ
=34	=34
16DnLL	16BnLL
16F	16dn
16A-	16f
16BnJJ	16a-JJ
16dnLK	16bnLK
8d	8b
[16dJk	[16bJk
=35	=35
*	*^
16d]	16bLL]	16r
8.r	16ddn	16fLL
.	16ff	16a-
.	16aa-JJ	16bnJJ
4r	8bbn	8dd
.	8r	8r
=36	=36	=36
8r	16cccLL	8ee- a-
.	16aa-	.
8r	16ee-	8r
.	[16ccJJ	.
4r	16ccLL]	4r
.	16a-	.
.	16c	.
.	16e-JJ	.
*	*v	*v
=37	=37
*>B1	*>B1
8E-L EE-	16b-LK g e- d-
.	8b- g e- d-
8E-J EE-	.
.	[16a-Jk [e- [c
8A- AA-	8a-]L e-] c]
8r	16e-L
.	16enJJ
=38:|!	=38:|!
*>B2	*>B2
8E-L EE-	16b-LK g e- d-
.	8b- g e- d-
8E-J EE-	.
.	[16a-Jk [e- [c
8A- AA-	8a-]L e-] c]
8r	8e-J
=39	=39
*>C	*>C
8AA-L	8cc a-
8cJ A- E-	4cc a-
8EE-L	.
8cJ A- E-	8ee- cc
=40	=40
8AA-L	16ffLK bn
.	8ee- cc
8cJ A- E-	.
.	16ffJk b
8EE-L	16ee-LL cc
.	16ffJ b
8cJ A- E-	8ee-J cc
=41	=41
8DD-L	16bb-LK een
.	8aa- ff
8d-J A- F	.
.	16bb-Jk ee
8DD-L	16aa-LL ff
.	16bb- ee
8d-J A- F	16aa- ff
.	[16ee-JJ [cc
=42	=42
*	*^
8AA-L	2ee-] cc]	8r
8cJ A- E-	.	16e-LL
.	.	16fJJ
8EE-L	.	16gLL
.	.	16a-
8cJ A- E-	.	16b-
.	.	16bnJJ
*	*v	*v
=43	=43
8AA-L	8cc a-
8cJ A- E-	4cc a-
8EE-L	.
8cJ A- E-	8ee- cc
=44	=44
8AA-L	16ffLK bn
.	8ee- cc
8cJ A- E-	.
.	16ffJk b
8AAnL	16ee-LL cc
.	16ee-J cc
8e-J An F#	8ee-J cc
=45	=45
*	*^
8BB-L	16ee-LK	16r
.	8b-	8.g
8e-J B- G	.	.
.	16ee-Jk	.
8BB-L	16ddnLL	8a-L
.	16ee-J	.
8dnJ B-	8ffJ	8a-J
*	*v	*v
=46	=46
8e-L E-	[4ee- [g
8d-J D-	.
8cL C	16ee-]LL g]
.	16e-
8B-J BB-	16g
.	16dd-JJ
=47	=47
8A-L AA-	8cc a-
8cJ A- E-	4cc a-
8EE-L	.
8cJ A- E-	8ee- cc
=48	=48
8AA-L	16ffLK bn
.	8ee- cc
8cJ A- E-	.
.	16ffJk b
8EE-L	16ee-LL cc
.	16ffJ b
8cJ A- E-	8ee-J cc
=49	=49
8DD-L	16bb-LK een
.	8aa- ff
8d-J A- F	.
.	16bb-Jk ee
8d-L D-	16aa-LL ff
.	16aa- ff
8d-J D-	16bb- gg ff
.	[16cccJJ [gg [ee
=50	=50
*	*^
8cL C	4ccc_ gg] ee]	16r
.	.	16ccLL
8GJ GG	.	16een
.	.	16ggJJ
8C CC	8cccL	8ccc]
8r	16ggL	8r
.	16aa-JJ	.
*	*v	*v
=51	=51
8D-L DD-	16bb-LK een
.	8aa- ff
8d-J A- F	.
.	16bb-Jk ee
8D-L DD-	16aa-LL ff
.	16bb- ee
8d-J A- F	16aa- ff
.	[16ee-JJ [cc
=52	=52
8A-L AA-	16ee-]LL cc]
.	16ff dd-
8cJ A- E-	16ee- cc
.	16dd-JJ b-
8A-L AA-	16ccLK a-
.	8ee- cc
8cJ A- E-	.
.	16ee-Jk cc
=53	=53
8E-L EE-	16ee-LK an
.	8dd- b-
8d-J G E-	.
.	16ee-Jk a
8E-L EE-	16dd-LL b-
.	16ccJ g d-
8E-J EE-	8b-J g d-
=54	=54
8A-L AA-	4a- c
8E-J EE-	.
8AA- AAA-	8aa- ee- cc a-
8r	8r
=55	=55
*k[b-e-a-d-g-]	*k[b-e-a-d-g-]
8d-L	8dd-L
[8d-J	[8dd-J
16d-LL]	16dd-LL]
16A-	16a-
16d-	16dd-
16e-JJ	16ee-JJ
=56	=56
*	*^
2r	8ffL	8fL
.	[8ffJ	[8fJ
.	16ffLL]	16fLL]
.	16a-	16A-
.	16dd-	16d-
.	16ffJJ	16fJJ
=57	=57	=57
4r	16aa-LK gg- cc	4a-
.	8ccc gg- ee-	.
.	16aa-Jk [gg- [cc	.
8A-L AA-	16bb-LL gg-] cc]	4r
.	16aa-J gg- cc	.
8A-J AA-	8ccJ a- g-	.
*	*v	*v
=58	=58
8D-L DD-	8dd- a- f
8D-J DD-	8r
8E-L EE-	8r
8FJ FF	16a-LL
.	16anJJ
=59!|:	=59!|:
*>D	*>D
8G-L GG-	16b-LK
.	8gg-
8g-J d- B-	.
.	16ee-Jk
8e-L E-	16anLK
.	8gg-
8enJ En	.
.	16ee-Jk
=60	=60
8fL F	16a-LL
.	16dd-
8fJ d- A-	16ff
.	[16bb-JJ
8d-L D-	16bb-LL]
.	16aa-
8fJ d- A-	16ff
.	16dd-JJ
=61	=61
8A-L AA-	16ccLL
.	16aa-
8g-J c A-	16ee-
.	16ccJJ
8e-L E-	16b-LK
.	8cc
8enJ En	.
.	16a-Jk
=62	=62
8fL F	16dd-LL
.	16dd-
8d-J D-	16ff
.	16aa-JJ
8A-L AA-	16ddd-LL
.	16bb-
8FJ FF	16aa-
.	16ffJJ
=63	=63
8G-L GG-	16b-LK
.	8gg-
8g-J d- B-	.
.	16ee-Jk
8e-L E-	16anLK
.	8gg-
8enJ En	.
.	16ee-Jk
=64	=64
8fL F	16a-LL
.	16dd-
8fJ d- A-	16ff
.	[16bb-JJ
8d-L D-	16bb-LL]
.	16aa-
8fJ d- A-	16ff
.	16dd-JJ
=65	=65
8B-L BB-	16ee-LL
.	16ff
8gnJ e- d-	16ee-
.	16dd-JJ
8E-L EE-	16ccLK
.	8dd-
8gJ e- d-	.
.	16b-Jk
=66	=66
8e-L c A-	8a-L
16DnL	16ffL bn
16E-JJ	16ee-JJ cc
8AA-L	8aa-L cc
8d-J F	8cc-J a-
=67	=67
*	*^
8G-L GG-	16b-LK	4b-
.	8gg-	.
8g-J d- B-	.	.
.	16ee-Jk	.
8e-L E-	16anLK	4an
.	8gg-	.
8enJ En	.	.
.	16ee-Jk	.
*	*v	*v
=68	=68
8fL F	16r
.	16a-LL
8fJ d- A-	16dd-
.	16ffJJ
8d-L D-	16bb-LL
.	16aa-
8fJ d- A-	16ff
.	16dd-JJ
=69	=69
8A-L AA-	16ccLL
.	16aa-
8g-J c A-	16ee-
.	16ccJJ
8e-L E-	16b-LK
.	8cc
8enJ En	.
.	16a-Jk
=70	=70
*	*^
8fL F	4r	16r
.	.	16dd-LL
8d-J D-	.	16ff
.	.	16aa-JJ
8A-L AA-	16ddd-LL	8ffL
.	16bb-	.
8FJ FF	16aa-	8cc-J
.	16ffJJ	.
=71	=71	=71
8G-L GG-	16b-LK	4b-
.	8gg-	.
8B-J BB-	.	.
.	16ee-Jk	.
8e-L E-	16anLK	4an
.	8gg-	.
8g-J G-	.	.
.	16ee-Jk	.
*	*v	*v
=72	=72
8fL F	16r
.	16a-LL
8d-J D-	16dd-
.	16ffJJ
8A-L AA-	16bb-LL
.	16aa-
8d-J D-	16ff
.	16a-JJ
=73	=73
*>D1	*>D1
*	*^
8B-L BB-	16gnLK	4gn
.	8.dd-J b-	.
8E-J EE-	.	.
4AA- AAA-	16g-LK	8.g-L
.	8ee- cc	.
.	[16dd-Jk	[16fJk
*	*v	*v
=74	=74
8D-L DD-	8dd-]L f]
8d-J D-	16ffL
.	16dd-JJ
8A-L AA-	16ee-LL
.	16ff
8FJ FF	16a-
.	16anJJ
=75:|!	=75:|!
*>D2	*>D2
*	*^
8B-L BB-	16gnLK	4gn
.	8.dd-J b-	.
8E-J EE-	.	.
4AA- AAA-	16g-LK	8.g-L
.	8ee- cc	.
.	16dd-Jk	16fJk
*	*v	*v
=76	=76
8D-L DD-	[4dd- [f
8AA-J	.
8DD-	16dd-]LL f]
.	16aa- a-
8r	16bb- b-
.	16bbnJJ bn
=77!|:	=77!|:
*>E	*>E
8e-L E-	8cccL gg- cc
8g-J c A-	16aa-L a-
.	[16bb-JJ [gg- [b-
8A-L AA-	4bb-] gg-] b-]
8g-J c A-	.
=78	=78
8E-L EE-	8cccL gg- cc
8g-J c A-	16aa-L a-
.	[16bb-JJ [gg- b-
16E-LL EE-	16bb-]LL gg-] b-
16A- AA-	16aa- a-
16Gn GGn	16bb- b-
16G-JJ GG-	16cccJJ cc
=79	=79
8FL FF	8ddd-L ff dd-
8fJ d- A-	16aa-L ff a-
.	[16bb-JJ [ff [b-
8d-L D-	4bb-] ff] b-]
8fJ d- A-	.
=80	=80
8FL FF	8ddd-L ff dd-
8fJ d- A-	16aa-L ff a-
.	[16bb-JJ [ff [b-
8d-L D-	4bb-] ff] b-]
8dnJ Dn	.
=81	=81
8e-L E-	8r
8g-J c A-	16bb-LL
.	[16aa-JJ [gg- [cc
8A-L AA-	4aa-] gg-] cc]
8g-J c A-	.
=82	=82
8cL C	8r
8g-J c A-	16bb-LL
.	[16aa-JJ [gg- [cc
8A-L AA-	4aa-] gg-] cc]
8g-J c A-	.
=83	=83
8d-L D-	8r
8fJ d- A-	16bb-LL
.	[16aa-JJ [ff [dd-
8A-L AA-	4aa-] ff] dd-]
8fJ d- A-	.
=84	=84
8d-L D-	8r
8fJ d- A-	16bb-LL
.	[16aa-JJ [ff [dd-
8fL F	16aa-]LL ff] dd-]
.	16aa- a-
8f-J F-	16bb- b-
.	16bbnJJ bn
=85	=85
8e-L E-	8cccL gg- cc
8g-J c A-	16aa-L a-
.	[16bb-JJ [gg- [b-
8A-L AA-	4bb-] gg-] b-]
8g-J c A-	.
=86	=86
8E-L EE-	8cccL gg- cc
8g-J c A-	16aa-L a-
.	[16bb-JJ [gg- [b-
16E-LL EE-	16bb-]LL gg-] b-]
16A- AA-	16aa- a-
16Gn GGn	16bb- b-
16G-JJ GG-	16cccJJ cc
=87	=87
8FL FF	8ddd-L ff dd-
8fJ d- A-	16aa-L ff a-
.	[16bb-JJ [ff [b-
8d-L D-	4bb-] ff] b-]
8fJ d- A-	.
=88	=88
*	*^
8fL F	4r	16r
.	.	16dd-LL
8d-J D-	.	16ff
.	.	16aa-JJ
8A-L AA-	16ddd-LL	8ffL
.	16bb-	.
8FJ FF	16aa-	8cc-J
.	16ffJJ	.
=89	=89	=89
8G-L GG-	16b-LK	4b-
.	8gg-	.
8B-J BB-	.	.
.	16ee-Jk	.
8e-L E-	16anLK	4an
.	8gg-	.
8g-J G-	.	.
.	16ee-Jk	.
*	*v	*v
=90	=90
8fL F	16r
.	16a-LL
8d-J D-	16dd-
.	16ffJJ
8A-L AA-	16bb-LL
.	16aa-
8d-J D-	16ff
.	16a-JJ
=91	=91
*>E1	*>E1
*	*^
8B-L BB-	16gnLK	4gn
.	8.dd-J b-	.
8E-J EE-	.	.
4AA- AAA-	16g-LK	8.g-L
.	8ee- cc	.
.	16dd-Jk	16fJk
*	*v	*v
=92	=92
8D-L DD-	[4dd- [f
8A-J AA-	.
8fL F	16dd-]LL f]
.	16aa- a-
8f-J F-	16bb- b-
.	16bbnJJ bn
=93:|!	=93:|!
*>E2	*>E2
*	*^
8B-L BB-	16gnLK	4gn
.	8.dd-J b-	.
8E-J EE-	.	.
4AA- AAA-	16g-LK	8.g-L
.	8ee- cc	.
.	16dd-Jk	16fJk
*	*v	*v
=94	=94
8D-L DD-	4dd- f
8AA-J	.
8DD-	8ddd- aa- ff dd-
8r	8r
==	==
*-	*-
!!!ENC: Craig Stuart Sapp
!!!END: 2004/11/28/
